X:1
T:Title
L:1/8
M:6/8
K:Eb
V:1 treble nm="Grand Piano"
V:1
 z3 z2[Q:1/4=100] B | B2 G G2 E | B3 A2 A | A2 G F2 E | D3- D2 B | B2 G c2 G | B2 =A _A2 A | %7
 A2 G F2 A | G3- G2 G | G2 d =B2 G | F3 E2 E | E2 C DEG | F3- F2 D | D2 E FGA | c3 B2 B | %15
 B2 B B2 A | B3- B2 B | B2 B B2 _d | B6 |] %19

